src/img/VideoPlaceholder.svg

<svg fill="none" height="403" viewBox="0 0 684 403" width="684" xmlns="http://www.w3.org/2000/svg"><path d="m674 0h-664c-5.52285 0-10 4.47715-10 10v383c0 5.523 4.47715 10 10 10h664c5.523 0 10-4.477 10-10v-383c0-5.52285-4.477-10-10-10z" fill="#c4c4c4"/><path d="m398.667 275h-114.334c-8.983 0-16.333-7.35-16.333-16.333v-114.334c0-8.983 7.35-16.333 16.333-16.333h114.334c8.983 0 16.333 7.35 16.333 16.333v114.334c0 8.983-7.35 16.333-16.333 16.333z" fill="#7a11ff"/><path d="m370.083 201.501-44.916-32.667v65.333z" fill="#fff"/></svg>

<svg width="684" height="403" viewBox="0 0 684 403" fill="none" xmlns="http://www.w3.org/2000/svg">
<path d="M674 0H10C4.47715 0 0 4.47715 0 10V393C0 398.523 4.47715 403 10 403H674C679.523 403 684 398.523 684 393V10C684 4.47715 679.523 0 674 0Z" fill="#C4C4C4"/>
<path d="M398.667 275H284.333C275.35 275 268 267.65 268 258.667V144.333C268 135.35 275.35 128 284.333 128H398.667C407.65 128 415 135.35 415 144.333V258.667C415 267.65 407.65 275 398.667 275Z" fill="#7A11FF"/>
<path d="M370.083 201.501L325.167 168.834V234.167L370.083 201.501Z" fill="white"/>
</svg>
